X:1
T:Good Tidings
T:Good Tidings
T:Asa Hull
T:Mary D. James, 1883
T:Public Domain Courtesy of the Cyber Hymnal™
T:Public Domain Courtesy of the Cyber Hymnal™
C:Asa Hull
Z:Public Domain
Z:Courtesy of the Cyber Hymnal™
%%score ( 1 2 ) ( 3 4 )
L:1/8
Q:1/4=92
M:4/4
K:E
V:1 treble 
V:2 treble 
V:3 bass 
V:4 bass 
V:1
 [GB] | [GB]2 [EG][GB] [FA]2 [DF][FA] | ([EG][GB])[Ge][EG] ([EG]2 [DF])[FB] | %3
w: 1.~Good|tid- ings, good tid- ings! A|Sav- * ior is born! * Great|
w: 2.~Great|Sav- ior, how won- drous Thy|love * to our race, * To|
w: 3.~O|won- der- ful Je- sus— The|child- * ren’s best friend! * To|
 [GB]2 [EG][GB] [FA]2 [DF][FA] | ([EG][B,E])[B,D][B,F] [B,E]3 [DF] | %5
w: joy to all peo- ple, Their|sor- * row is gone. With|
w: come and re- deem us, And|save * us by grace! To|
w: praise and a- dore Thee Our|voic- * es we blend. With|
 [DF]2 [B,D]B, [B,G]2 [B,E][EG] | (AF)[B,D]B,!<(! ([B,E][EG][GB])!<)!!ff![Ac] | %7
w: glad- ness we wor- ship And|bow * at His feet, * * With|
w: leave Thy blest king- dom Of|glo- * ry on high, * * And|
w: heart- felt de- vo- tion We|sing * of Thy grace, * * And|
 [GB]2 [EG][GB] [FA]2 [DF][FA] | ([EG][B,E])[B,D][B,F] [B,E]3 ||"^Refrain" B | %10
w: joy- ous thanks- giv- ing His|prais- * es re- peat!||
w: for our re- demp- tion To|suf- * fer and die!|Good|
w: join with the an- gels In|chant- * ing Thy praise!||
 B2 [Ac][Ad] [Ge]2 [GB][Ge] | [Fd]2 [Ac][Ad] (e2 B)[GB]/[GB]/ | %12
w: ||
w: tid- ings, good tid- ings! Good|tid- ings we bring! * Hal- le-|
w: ||
 [GB]2 [EG][GB]/[Ge]/ [Fd]2 [DA][DA]/[DA]/ | (AF)[Dc][DB] !fermata!E3 |] %14
w: ||
w: lu- jah, hal- le- lu- jah, Hal- le-|lu- * jahs we sing!|
w: ||
V:2
 x | x8 | x8 | x8 | x8 | x3 B, x4 | D2 B, x5 | x8 | x7 || B | B2 x6 | x4 G3 x | x8 | D2 x E3 x |] %14
V:3
 [E,E] | [E,E]2 [E,B,][E,B,] [B,,B,]2 [B,,B,][B,,B,] | [E,B,]2 [E,B,][E,B,] [B,,B,]3 [D,B,] | %3
 [E,B,]2 [E,B,][E,B,] [B,,B,]2 [B,,B,][B,,B,] | (B,G,)[B,,F,][B,,A,] [E,G,]3 [B,,B,] | %5
 [B,,B,]2 [B,,F,][D,F,] E,2 [E,G,][E,B,] | [B,,B,]2 [B,,F,][D,F,] (G,B,E)[E,E] | %7
 [E,E]2 [E,B,][E,B,] [B,,B,]2 [B,,B,][B,,B,] | (B,G,)[B,,F,][B,,A,] [E,G,]3 || B, | %10
 B,2 B,B, [E,B,]2 [E,B,][E,B,] | B,2 B,B, [E,B,]3 [E,E]/[E,E]/ | %12
 [E,E]2 [E,B,][E,B,]/[E,B,]/ [B,,B,]2 [B,,B,][B,,B,]/[B,,B,]/ | %13
 [B,,B,]2 !fermata![B,,B,]!fermata![B,,B,] !fermata![E,G,]3 |] %14
V:4
 x | x8 | x8 | x8 | B,,2 x6 | x4 E,2 x2 | x4 E,2 x2 | x8 | B,,2 x5 || B, | B,2 B,B, x4 | %11
 B,2 B,B, x4 | x8 | x7 |] %14

